src/icons/facebook.svg

<?xml version="1.0" encoding="utf-8"?>
<!-- Generated by IcoMoon.io -->
<!DOCTYPE svg PUBLIC "-//W3C//DTD SVG 1.1//EN" "http://www.w3.org/Graphics/SVG/1.1/DTD/svg11.dtd">
<svg version="1.1" xmlns="http://www.w3.org/2000/svg" xmlns:xlink="http://www.w3.org/1999/xlink" width="32" height="32" viewBox="0 0 32 32">
<path d="M26.667 0h-21.334c-2.945 0-5.333 2.388-5.333 5.334v21.332c0 2.946 2.387 5.334 5.333 5.334h10.667v-14h-4v-4h4v-3c0-2.761 2.239-5 5-5h5v4h-5c-0.552 0-1 0.448-1 1v3h5.5l-1 4h-4.5v14h6.667c2.945 0 5.333-2.388 5.333-5.334v-21.332c0-2.946-2.387-5.334-5.333-5.334z" fill="#444444"></path>
</svg>

<?xml version="1.0" encoding="utf-8"?>
<!-- Generator: Adobe Illustrator 18.0.0, SVG Export Plug-In . SVG Version: 6.00 Build 0)  -->
<!DOCTYPE svg PUBLIC "-//W3C//DTD SVG 1.1//EN" "http://www.w3.org/Graphics/SVG/1.1/DTD/svg11.dtd">
<svg version="1.1" id="Layer_1" xmlns="http://www.w3.org/2000/svg" xmlns:xlink="http://www.w3.org/1999/xlink" x="0px" y="0px"
	 viewBox="0 0 32 32" enable-background="new 0 0 32 32" xml:space="preserve">
<path fill="#FFFFFF" d="M26.7,0H5.3C2.4,0,0,2.4,0,5.3v21.3C0,29.6,2.4,32,5.3,32H16V18h-4v-4h4v-3c0-2.8,2.2-5,5-5h5v4h-5
	c-0.6,0-1,0.4-1,1v3h5.5l-1,4H20v14h6.7c2.9,0,5.3-2.4,5.3-5.3V5.3C32,2.4,29.6,0,26.7,0z"/>
</svg>
